X:62
T:Old Rodger. VWMLa.062
%%VWML:Anon2-3049-p37-0
F:http://www.vwml.org/record/Anon2/3049/p37
R:Slip Jig
S:Anon. MS, late 18thC, Vaughan Williams Mem. Library
O:England;Yorkshire
Z:vmp/efdss.Simon Wilson. Reviewed PJH 2008.
M:9/8
L:1/8
Q:3/8=120
K:D
A,|(B,/C/D) DD2B AFD|C2E EFD C>B,A,|\
(B,/C/D) DD2B AFA|(B/c/d) DD2B CB,A,:|
|:AFA BGB AFD|C2E EFE CB,A,|\
AFA BGB ABc|d2D DED CB,A,:|
|:fga efg fed|cde efg f2e|\
fga efd cBc|d2D DED CB,A,:|
T:Irish Lilt. VWMLa.063
R:Reel
S:Anon. MS, late 18thC, Vaughan Williams Mem. Library
O:England;Yorkshire
Z:vmp/efdss.Simon Wilson. Reviewed PJH 2008.
M:2/4
L:1/8
Q:1/4=140
K:D
dBAG|A2AB|d2((3efg)|fe-ef|\
dBAG|A2AB|d2{f}((3ede)|fdd2:|
|:fd-df|a2gf|g>aba|ge-eg|\
dBAG|A2AB|d2 {f}((3ede)|fdd2:|
